tellnet/images/service-images/intercom-img.svg

<svg width="80" height="80" viewBox="0 0 80 80" fill="none" xmlns="http://www.w3.org/2000/svg">
<path d="M77.3926 25.7941C80.4183 33.7587 80.8219 42.4814 78.5446 50.6914C76.2673 58.9014 71.4281 66.1698 64.7319 71.4377C58.0357 76.7056 49.8324 79.6978 41.3171 79.9783C32.8018 80.2589 24.4194 77.8131 17.391 72.9974C10.3626 68.1817 5.05544 61.2476 2.24269 53.2053C-0.570063 45.163 -0.741443 36.4326 1.75349 28.2861C4.24841 20.1396 9.2793 13.0025 16.1133 7.91464C22.9472 2.82677 31.2272 0.0539034 39.747 7.551e-06C39.8663 -0.000683259 39.981 0.0460504 40.0658 0.129927C40.1507 0.213804 40.1987 0.327954 40.1994 0.447265C40.2001 0.566575 40.1534 0.681273 40.0695 0.766127C39.9856 0.850981 39.8715 0.899041 39.7522 0.899732C31.4121 0.946067 23.3048 3.65502 16.612 8.63172C9.91933 13.6084 4.99108 20.5927 2.54568 28.5664C0.100277 36.5402 0.26556 45.0866 3.01745 52.9598C5.76933 60.8331 10.964 67.6216 17.8441 72.3358C24.7242 77.0499 32.9302 79.4434 41.2659 79.1672C49.6015 78.891 57.6311 75.9596 64.1841 70.8004C70.7371 65.6411 75.471 58.5237 77.6957 50.4855C79.9204 42.4474 79.5197 33.9088 76.5518 26.1144C76.5098 26.003 76.5137 25.8795 76.5625 25.771C76.6114 25.6624 76.7013 25.5776 76.8126 25.5353C76.9238 25.4929 77.0473 25.4963 77.1561 25.5448C77.2648 25.5934 77.3498 25.683 77.3926 25.7941L77.3926 25.7941Z" fill="white"/>
<path d="M75.3427 26.6849C78.0101 33.7643 78.477 41.4843 76.6822 48.8336C74.8875 56.1828 70.9147 62.8186 65.2845 67.8715C65.1954 67.9509 65.0784 67.9915 64.9593 67.9846C64.8402 67.9777 64.7287 67.9238 64.6494 67.8347C64.5701 67.7456 64.5294 67.6286 64.5363 67.5095C64.5432 67.3904 64.5972 67.2789 64.6863 67.1996C69.6494 62.7818 73.3103 57.0911 75.273 50.743C77.2357 44.3949 77.4255 37.631 75.8218 31.1828C74.2182 24.7346 70.8822 18.8476 66.1746 14.1584C61.467 9.4692 55.567 6.1563 49.1126 4.57799C42.6583 2.99968 35.8952 3.21603 29.5549 5.20365C23.2147 7.19126 17.5384 10.8745 13.1402 15.855C8.74188 20.8355 5.78896 26.9237 4.60074 33.4612C3.41252 39.9987 4.03423 46.7366 6.39863 52.9463C6.41966 53.0015 6.42963 53.0603 6.42793 53.1194C6.42623 53.1784 6.41291 53.2366 6.38875 53.2905C6.36458 53.3444 6.33003 53.393 6.28708 53.4335C6.24412 53.4741 6.1936 53.5058 6.13839 53.5268C6.08319 53.5479 6.02439 53.5578 5.96533 53.5561C5.90628 53.5544 5.84813 53.5411 5.79422 53.5169C5.74031 53.4928 5.6917 53.4582 5.65114 53.4153C5.61058 53.3723 5.57887 53.3218 5.55784 53.2666C3.81248 48.6844 2.98674 43.8033 3.12775 38.902C3.26876 34.0007 4.37378 29.1752 6.37969 24.7009C8.3856 20.2266 11.2531 16.1913 14.8185 12.8252C18.384 9.4592 22.5775 6.82839 27.1596 5.08301C31.7417 3.33764 36.6228 2.51188 41.524 2.6529C46.4253 2.79391 51.2508 3.89892 55.725 5.90485C60.1992 7.91078 64.2345 10.7783 67.6005 14.3438C70.9666 17.9092 73.5973 22.1028 75.3427 26.685V26.6849Z" fill="white"/>
<path d="M51.9251 59.7415H28.5325C27.9362 59.7408 27.3644 59.5036 26.9428 59.082C26.5211 58.6603 26.2839 58.0886 26.2832 57.4922V24.2024C26.2839 23.6061 26.5211 23.0344 26.9428 22.6127C27.3644 22.191 27.9362 21.9538 28.5325 21.9531H51.9251C52.5214 21.9538 53.0931 22.191 53.5148 22.6127C53.9365 23.0344 54.1737 23.6061 54.1744 24.2024V57.4922C54.1737 58.0886 53.9365 58.6603 53.5148 59.082C53.0931 59.5036 52.5214 59.7408 51.9251 59.7415ZM28.5325 22.8528C28.1747 22.8532 27.8316 22.9956 27.5786 23.2486C27.3256 23.5016 27.1833 23.8446 27.1829 24.2024V57.4922C27.1833 57.85 27.3256 58.1931 27.5786 58.4461C27.8316 58.6991 28.1747 58.8414 28.5325 58.8418H51.9251C52.2829 58.8414 52.6259 58.6991 52.8789 58.4461C53.132 58.1931 53.2743 57.85 53.2747 57.4922V24.2024C53.2743 23.8446 53.132 23.5016 52.8789 23.2486C52.6259 22.9956 52.2829 22.8532 51.9251 22.8528H28.5325Z" fill="white"/>
<path d="M53.7244 31.8501H26.7329V32.7498H53.7244V31.8501Z" fill="white"/>
<path d="M47.6394 54.9845C47.1946 54.9845 46.7597 54.8525 46.3898 54.6054C46.0199 54.3582 45.7316 54.0069 45.5614 53.5959C45.3911 53.1849 45.3466 52.7327 45.4334 52.2963C45.5201 51.86 45.7344 51.4592 46.0489 51.1446C46.3635 50.8301 46.7643 50.6159 47.2006 50.5291C47.6369 50.4423 48.0892 50.4868 48.5002 50.6571C48.9112 50.8273 49.2625 51.1156 49.5096 51.4855C49.7568 51.8554 49.8887 52.2903 49.8887 52.7352C49.888 53.3315 49.6508 53.9032 49.2291 54.3249C48.8075 54.7466 48.2358 54.9838 47.6394 54.9845ZM47.6394 51.3856C47.3725 51.3856 47.1116 51.4647 46.8897 51.613C46.6677 51.7613 46.4947 51.9721 46.3926 52.2187C46.2904 52.4653 46.2637 52.7366 46.3158 52.9984C46.3678 53.2602 46.4964 53.5007 46.6851 53.6895C46.8739 53.8782 47.1143 54.0067 47.3761 54.0588C47.6379 54.1109 47.9093 54.0842 48.1559 53.982C48.4025 53.8799 48.6133 53.7069 48.7615 53.4849C48.9098 53.263 48.989 53.0021 48.989 52.7352C48.9886 52.3773 48.8463 52.0343 48.5933 51.7813C48.3403 51.5283 47.9972 51.386 47.6394 51.3856Z" fill="white"/>
<path d="M33.2439 40.5885C32.7991 40.5885 32.3642 40.4565 31.9943 40.2094C31.6244 39.9622 31.3361 39.6109 31.1659 39.1999C30.9956 38.7889 30.9511 38.3367 31.0378 37.9003C31.1246 37.464 31.3389 37.0632 31.6534 36.7486C31.968 36.4341 32.3688 36.2199 32.8051 36.1331C33.2414 36.0463 33.6937 36.0908 34.1047 36.2611C34.5157 36.4313 34.867 36.7196 35.1141 37.0895C35.3613 37.4594 35.4932 37.8943 35.4932 38.3392C35.4925 38.9355 35.2553 39.5072 34.8336 39.9289C34.412 40.3506 33.8403 40.5878 33.2439 40.5885ZM33.2439 36.9896C32.977 36.9896 32.7161 37.0687 32.4941 37.217C32.2722 37.3653 32.0992 37.5761 31.9971 37.8227C31.8949 38.0693 31.8682 38.3407 31.9203 38.6024C31.9723 38.8642 32.1009 39.1047 32.2896 39.2935C32.4784 39.4822 32.7188 39.6107 32.9806 39.6628C33.2424 39.7149 33.5138 39.6882 33.7604 39.586C34.007 39.4839 34.2177 39.3109 34.366 39.0889C34.5143 38.867 34.5935 38.6061 34.5935 38.3392C34.5931 37.9813 34.4508 37.6383 34.1978 37.3853C33.9448 37.1323 33.6017 36.99 33.2439 36.9896Z" fill="white"/>
<path d="M33.2439 47.7867C32.7991 47.7867 32.3642 47.6548 31.9943 47.4076C31.6244 47.1605 31.3361 46.8092 31.1659 46.3982C30.9956 45.9872 30.9511 45.5349 31.0378 45.0986C31.1246 44.6623 31.3389 44.2615 31.6534 43.9469C31.968 43.6323 32.3688 43.4181 32.8051 43.3313C33.2414 43.2445 33.6937 43.2891 34.1047 43.4593C34.5157 43.6296 34.867 43.9179 35.1141 44.2878C35.3613 44.6576 35.4932 45.0925 35.4932 45.5374C35.4925 46.1337 35.2553 46.7055 34.8336 47.1271C34.412 47.5488 33.8403 47.786 33.2439 47.7867ZM33.2439 44.1878C32.977 44.1878 32.7161 44.267 32.4941 44.4153C32.2722 44.5636 32.0992 44.7743 31.9971 45.0209C31.8949 45.2675 31.8682 45.5389 31.9203 45.8007C31.9723 46.0625 32.1009 46.303 32.2896 46.4917C32.4784 46.6804 32.7188 46.809 32.9806 46.8611C33.2424 46.9131 33.5138 46.8864 33.7604 46.7843C34.007 46.6821 34.2177 46.5091 34.366 46.2872C34.5143 46.0653 34.5935 45.8043 34.5935 45.5374C34.5931 45.1796 34.4508 44.8365 34.1978 44.5835C33.9448 44.3305 33.6017 44.1882 33.2439 44.1878Z" fill="white"/>
<path d="M33.2439 54.9845C32.7991 54.9845 32.3642 54.8525 31.9943 54.6054C31.6244 54.3582 31.3361 54.0069 31.1659 53.5959C30.9956 53.1849 30.9511 52.7327 31.0378 52.2963C31.1246 51.86 31.3389 51.4592 31.6534 51.1446C31.968 50.8301 32.3688 50.6159 32.8051 50.5291C33.2414 50.4423 33.6937 50.4868 34.1047 50.6571C34.5157 50.8273 34.867 51.1156 35.1141 51.4855C35.3613 51.8554 35.4932 52.2903 35.4932 52.7352C35.4925 53.3315 35.2553 53.9032 34.8336 54.3249C34.412 54.7466 33.8403 54.9838 33.2439 54.9845ZM33.2439 51.3856C32.977 51.3856 32.7161 51.4647 32.4941 51.613C32.2722 51.7613 32.0992 51.9721 31.9971 52.2187C31.8949 52.4653 31.8682 52.7366 31.9203 52.9984C31.9723 53.2602 32.1009 53.5007 32.2896 53.6895C32.4784 53.8782 32.7188 54.0067 32.9806 54.0588C33.2424 54.1109 33.5138 54.0842 33.7604 53.982C34.007 53.8799 34.2177 53.7069 34.366 53.4849C34.5143 53.263 34.5935 53.0021 34.5935 52.7352C34.5931 52.3773 34.4508 52.0343 34.1978 51.7813C33.9448 51.5283 33.6017 51.386 33.2439 51.3856Z" fill="white"/>
<path d="M40.4417 40.5885C39.9968 40.5885 39.5619 40.4565 39.192 40.2094C38.8221 39.9622 38.5338 39.6109 38.3636 39.1999C38.1934 38.7889 38.1488 38.3367 38.2356 37.9003C38.3224 37.464 38.5366 37.0632 38.8512 36.7486C39.1658 36.4341 39.5665 36.2199 40.0029 36.1331C40.4392 36.0463 40.8914 36.0908 41.3024 36.2611C41.7134 36.4313 42.0647 36.7196 42.3119 37.0895C42.559 37.4594 42.691 37.8943 42.691 38.3392C42.6903 38.9355 42.4531 39.5072 42.0314 39.9289C41.6097 40.3506 41.038 40.5878 40.4417 40.5885ZM40.4417 36.9896C40.1748 36.9896 39.9138 37.0687 39.6919 37.217C39.47 37.3653 39.297 37.5761 39.1948 37.8227C39.0927 38.0693 39.0659 38.3407 39.118 38.6024C39.1701 38.8642 39.2986 39.1047 39.4874 39.2935C39.6761 39.4822 39.9166 39.6107 40.1784 39.6628C40.4402 39.7149 40.7115 39.6882 40.9581 39.586C41.2047 39.4839 41.4155 39.3109 41.5638 39.0889C41.7121 38.867 41.7912 38.6061 41.7912 38.3392C41.7909 37.9813 41.6485 37.6383 41.3955 37.3853C41.1425 37.1323 40.7995 36.99 40.4417 36.9896Z" fill="white"/>
<path d="M40.4417 47.7867C39.9968 47.7867 39.5619 47.6548 39.192 47.4076C38.8221 47.1605 38.5338 46.8092 38.3636 46.3982C38.1934 45.9872 38.1488 45.5349 38.2356 45.0986C38.3224 44.6623 38.5366 44.2615 38.8512 43.9469C39.1658 43.6323 39.5665 43.4181 40.0029 43.3313C40.4392 43.2445 40.8914 43.2891 41.3024 43.4593C41.7134 43.6296 42.0647 43.9179 42.3119 44.2878C42.559 44.6576 42.691 45.0925 42.691 45.5374C42.6903 46.1337 42.4531 46.7055 42.0314 47.1271C41.6097 47.5488 41.038 47.786 40.4417 47.7867ZM40.4417 44.1878C40.1748 44.1878 39.9138 44.267 39.6919 44.4153C39.47 44.5636 39.297 44.7743 39.1948 45.0209C39.0927 45.2675 39.0659 45.5389 39.118 45.8007C39.1701 46.0625 39.2986 46.303 39.4874 46.4917C39.6761 46.6804 39.9166 46.809 40.1784 46.8611C40.4402 46.9131 40.7115 46.8864 40.9581 46.7843C41.2047 46.6821 41.4155 46.5091 41.5638 46.2872C41.7121 46.0653 41.7912 45.8043 41.7912 45.5374C41.7909 45.1796 41.6485 44.8365 41.3955 44.5835C41.1425 44.3305 40.7995 44.1882 40.4417 44.1878Z" fill="white"/>
<path d="M40.4417 54.9845C39.9968 54.9845 39.5619 54.8525 39.192 54.6054C38.8221 54.3582 38.5338 54.0069 38.3636 53.5959C38.1934 53.1849 38.1488 52.7327 38.2356 52.2963C38.3224 51.86 38.5366 51.4592 38.8512 51.1446C39.1658 50.8301 39.5665 50.6159 40.0029 50.5291C40.4392 50.4423 40.8914 50.4868 41.3024 50.6571C41.7134 50.8273 42.0647 51.1156 42.3119 51.4855C42.559 51.8554 42.691 52.2903 42.691 52.7352C42.6903 53.3315 42.4531 53.9032 42.0314 54.3249C41.6097 54.7466 41.038 54.9838 40.4417 54.9845ZM40.4417 51.3856C40.1748 51.3856 39.9138 51.4647 39.6919 51.613C39.47 51.7613 39.297 51.9721 39.1948 52.2187C39.0927 52.4653 39.0659 52.7366 39.118 52.9984C39.1701 53.2602 39.2986 53.5007 39.4874 53.6895C39.6761 53.8782 39.9166 54.0067 40.1784 54.0588C40.4402 54.1109 40.7115 54.0842 40.9581 53.982C41.2047 53.8799 41.4155 53.7069 41.5638 53.4849C41.7121 53.263 41.7912 53.0021 41.7912 52.7352C41.7909 52.3773 41.6485 52.0343 41.3955 51.7813C41.1425 51.5283 40.7995 51.386 40.4417 51.3856Z" fill="white"/>
<path d="M47.6394 40.5885C47.1946 40.5885 46.7597 40.4565 46.3898 40.2094C46.0199 39.9622 45.7316 39.6109 45.5614 39.1999C45.3911 38.7889 45.3466 38.3367 45.4334 37.9003C45.5201 37.464 45.7344 37.0632 46.0489 36.7486C46.3635 36.4341 46.7643 36.2199 47.2006 36.1331C47.6369 36.0463 48.0892 36.0908 48.5002 36.2611C48.9112 36.4313 49.2625 36.7196 49.5096 37.0895C49.7568 37.4594 49.8887 37.8943 49.8887 38.3392C49.888 38.9355 49.6508 39.5072 49.2291 39.9289C48.8075 40.3506 48.2358 40.5878 47.6394 40.5885ZM47.6394 36.9896C47.3725 36.9896 47.1116 37.0687 46.8897 37.217C46.6677 37.3653 46.4947 37.5761 46.3926 37.8227C46.2904 38.0693 46.2637 38.3407 46.3158 38.6024C46.3678 38.8642 46.4964 39.1047 46.6851 39.2935C46.8739 39.4822 47.1143 39.6107 47.3761 39.6628C47.6379 39.7149 47.9093 39.6882 48.1559 39.586C48.4025 39.4839 48.6133 39.3109 48.7615 39.0889C48.9098 38.867 48.989 38.6061 48.989 38.3392C48.9886 37.9813 48.8463 37.6383 48.5933 37.3853C48.3403 37.1323 47.9972 36.99 47.6394 36.9896Z" fill="white"/>
<path d="M47.6394 47.7867C47.1946 47.7867 46.7597 47.6548 46.3898 47.4076C46.0199 47.1605 45.7316 46.8092 45.5614 46.3982C45.3911 45.9872 45.3466 45.5349 45.4334 45.0986C45.5201 44.6623 45.7344 44.2615 46.0489 43.9469C46.3635 43.6323 46.7643 43.4181 47.2006 43.3313C47.6369 43.2445 48.0892 43.2891 48.5002 43.4593C48.9112 43.6296 49.2625 43.9179 49.5096 44.2878C49.7568 44.6576 49.8887 45.0925 49.8887 45.5374C49.888 46.1337 49.6508 46.7055 49.2291 47.1271C48.8075 47.5488 48.2358 47.786 47.6394 47.7867ZM47.6394 44.1878C47.3725 44.1878 47.1116 44.267 46.8897 44.4153C46.6677 44.5636 46.4947 44.7743 46.3926 45.0209C46.2904 45.2675 46.2637 45.5389 46.3158 45.8007C46.3678 46.0625 46.4964 46.303 46.6851 46.4917C46.8739 46.6804 47.1143 46.809 47.3761 46.8611C47.6379 46.9131 47.9093 46.8864 48.1559 46.7843C48.4025 46.6821 48.6133 46.5091 48.7615 46.2872C48.9098 46.0653 48.989 45.8043 48.989 45.5374C48.9886 45.1796 48.8463 44.8365 48.5933 44.5835C48.3403 44.3305 47.9972 44.1882 47.6394 44.1878Z" fill="white"/>
<path d="M49.8886 28.4424H39.9917V29.3421H49.8886V28.4424Z" fill="white"/>
</svg>

<?xml version="1.0" encoding="UTF-8" standalone="no"?>
<svg width="80" xmlns="http://www.w3.org/2000/svg" viewBox="0 0 80 80" height="80">
 <path d="m77.393 25.794c3.025 7.965 3.429 16.687 1.152 24.897-2.278 8.21-7.117 15.479-13.813 20.747s-14.9 8.26-23.415 8.54c-8.515 0.281-16.898-2.165-23.926-6.981-7.028-4.815-12.336-11.749-15.148-19.792-2.8131-8.042-2.9844-16.772-0.4895-24.919 2.4949-8.146 7.5258-15.284 14.36-20.371 6.833-5.0882 15.113-7.8611 23.633-7.915 0.119-0.00068326 0.234 0.04605 0.319 0.12993 0.085 0.08387 0.133 0.19802 0.133 0.31733 0.001 0.11932-0.046 0.23401-0.129 0.31887-0.084 0.08485-0.198 0.13291-0.318 0.1336-8.34 0.04634-16.447 2.7553-23.14 7.732-6.6927 4.9763-11.621 11.961-14.066 19.934-2.4457 7.974-2.2804 16.521 0.4714 24.394 2.7519 7.873 7.9466 14.662 14.827 19.376 6.88 4.714 15.086 7.107 23.422 6.831s16.365-3.207 22.918-8.367c6.553-5.159 11.287-12.276 13.512-20.314 2.224-8.039 1.824-16.577-1.144-24.372-0.042-0.111-0.038-0.234 0.01-0.343 0.049-0.109 0.139-0.193 0.251-0.236 0.111-0.042 0.234-0.039 0.343 0.01 0.109 0.048 0.194 0.138 0.237 0.249z" fill="#fff"/>
 <path d="m75.343 26.685c2.667 7.079 3.134 14.799 1.339 22.149-1.794 7.349-5.767 13.985-11.398 19.038-0.089 0.079-0.206 0.12-0.325 0.113s-0.23-0.061-0.31-0.15c-0.079-0.089-0.12-0.206-0.113-0.325 0.007-0.12 0.061-0.231 0.15-0.31 4.963-4.418 8.624-10.109 10.587-16.457s2.153-13.112 0.549-19.56-4.94-12.335-9.647-17.025c-4.708-4.6888-10.608-8.0017-17.062-9.58-6.455-1.5783-13.218-1.362-19.558 0.6256-6.34 1.9877-12.017 5.6704-16.415 10.651-4.3981 4.981-7.351 11.069-8.5393 17.606-1.1882 6.538-0.5665 13.276 1.7979 19.485 0.0211 0.056 0.031 0.114 0.0293 0.173s-0.015 0.118-0.0391 0.171c-0.0242 0.054-0.0588 0.103-0.1017 0.144-0.043 0.04-0.0935 0.072-0.1487 0.093s-0.114 0.031-0.1731 0.029c-0.059-0.002-0.1172-0.015-0.1711-0.039s-0.1025-0.059-0.1431-0.102c-0.0405-0.043-0.0722-0.093-0.0933-0.148-1.7453-4.583-2.5711-9.464-2.43-14.365 0.141-4.901 1.246-9.727 3.2519-14.201s4.8733-8.51 8.4383-11.876c3.566-3.3658 7.76-5.9966 12.342-7.742s9.463-2.5711 14.364-2.4301 9.727 1.246 14.201 3.2519c4.474 2.006 8.509 4.8732 11.875 8.4392 3.367 3.565 5.997 7.759 7.743 12.341z" fill="#fff"/>
 <path d="m51.925 59.742h-23.393c-0.596-0.001-1.168-0.238-1.589-0.66-0.422-0.422-0.659-0.993-0.66-1.59v-33.29c0.001-0.596 0.238-1.168 0.66-1.589 0.421-0.422 0.993-0.659 1.589-0.66h23.393c0.596 0.001 1.168 0.238 1.59 0.66 0.421 0.421 0.659 0.993 0.659 1.589v33.29c0 0.597-0.238 1.168-0.659 1.59-0.422 0.422-0.994 0.659-1.59 0.66zm-23.393-36.889c-0.357 0-0.7 0.143-0.953 0.396s-0.396 0.596-0.396 0.953v33.29c0 0.358 0.143 0.701 0.396 0.954s0.596 0.395 0.953 0.396h23.393c0.358-0.001 0.701-0.143 0.954-0.396s0.395-0.596 0.396-0.954v-33.29c-0.001-0.357-0.143-0.7-0.396-0.953s-0.596-0.396-0.954-0.396h-23.393z" fill="#fff"/>
 <path d="m53.724 31.85h-26.991v0.9h26.991v-0.9z" fill="#fff"/>
 <path d="m47.639 54.984c-0.444 0-0.879-0.132-1.249-0.379s-0.658-0.598-0.829-1.009c-0.17-0.411-0.214-0.863-0.128-1.3 0.087-0.436 0.301-0.837 0.616-1.151 0.315-0.315 0.715-0.529 1.152-0.616 0.436-0.087 0.888-0.042 1.299 0.128s0.762 0.459 1.01 0.829c0.247 0.369 0.379 0.804 0.379 1.249-0.001 0.597-0.238 1.168-0.66 1.59-0.421 0.422-0.993 0.659-1.59 0.659zm0-3.598c-0.267 0-0.527 0.079-0.749 0.227s-0.395 0.359-0.497 0.606c-0.103 0.246-0.129 0.518-0.077 0.779 0.052 0.262 0.18 0.503 0.369 0.692 0.189 0.188 0.429 0.317 0.691 0.369s0.533 0.025 0.78-0.077c0.246-0.102 0.457-0.275 0.606-0.497 0.148-0.222 0.227-0.483 0.227-0.75 0-0.358-0.143-0.701-0.396-0.954s-0.596-0.395-0.954-0.395z" fill="#fff"/>
 <path d="m33.244 40.588c-0.445 0-0.88-0.132-1.25-0.379s-0.658-0.598-0.828-1.009-0.215-0.863-0.128-1.3c0.087-0.436 0.301-0.837 0.615-1.151 0.315-0.315 0.716-0.529 1.152-0.616s0.889-0.042 1.3 0.128 0.762 0.459 1.009 0.829c0.247 0.369 0.379 0.804 0.379 1.249-0.001 0.597-0.238 1.168-0.659 1.59-0.422 0.422-0.994 0.659-1.59 0.659zm0-3.598c-0.267 0-0.528 0.079-0.75 0.227s-0.395 0.359-0.497 0.606c-0.102 0.246-0.129 0.518-0.077 0.779 0.052 0.262 0.181 0.503 0.37 0.692 0.188 0.188 0.429 0.317 0.691 0.369 0.261 0.052 0.533 0.025 0.779-0.077 0.247-0.102 0.458-0.275 0.606-0.497s0.228-0.483 0.228-0.75c-0.001-0.358-0.143-0.701-0.396-0.954s-0.596-0.395-0.954-0.395z" fill="#fff"/>
 <path d="m33.244 47.787c-0.445 0-0.88-0.132-1.25-0.379-0.37-0.248-0.658-0.599-0.828-1.01s-0.215-0.863-0.128-1.299c0.087-0.437 0.301-0.837 0.615-1.152 0.315-0.315 0.716-0.529 1.152-0.616s0.889-0.042 1.3 0.128c0.411 0.171 0.762 0.459 1.009 0.829s0.379 0.804 0.379 1.249c-0.001 0.597-0.238 1.169-0.659 1.59-0.422 0.422-0.994 0.659-1.59 0.66zm0-3.599c-0.267 0-0.528 0.079-0.75 0.227-0.222 0.149-0.395 0.359-0.497 0.606s-0.129 0.518-0.077 0.78c0.052 0.261 0.181 0.502 0.37 0.691 0.188 0.188 0.429 0.317 0.691 0.369 0.261 0.052 0.533 0.025 0.779-0.077 0.247-0.102 0.458-0.275 0.606-0.497s0.228-0.483 0.228-0.75c-0.001-0.357-0.143-0.701-0.396-0.953-0.253-0.254-0.596-0.396-0.954-0.396z" fill="#fff"/>
 <path d="m33.244 54.984c-0.445 0-0.88-0.132-1.25-0.379s-0.658-0.598-0.828-1.009-0.215-0.863-0.128-1.3c0.087-0.436 0.301-0.837 0.615-1.151 0.315-0.315 0.716-0.529 1.152-0.616s0.889-0.042 1.3 0.128 0.762 0.459 1.009 0.829c0.247 0.369 0.379 0.804 0.379 1.249-0.001 0.597-0.238 1.168-0.659 1.59-0.422 0.422-0.994 0.659-1.59 0.659zm0-3.598c-0.267 0-0.528 0.079-0.75 0.227s-0.395 0.359-0.497 0.606c-0.102 0.246-0.129 0.518-0.077 0.779 0.052 0.262 0.181 0.503 0.37 0.692 0.188 0.188 0.429 0.317 0.691 0.369 0.261 0.052 0.533 0.025 0.779-0.077 0.247-0.102 0.458-0.275 0.606-0.497s0.228-0.483 0.228-0.75c-0.001-0.358-0.143-0.701-0.396-0.954s-0.596-0.395-0.954-0.395z" fill="#fff"/>
 <path d="m40.442 40.588c-0.445 0-0.88-0.132-1.25-0.379s-0.658-0.598-0.828-1.009c-0.171-0.411-0.215-0.863-0.128-1.3 0.086-0.436 0.301-0.837 0.615-1.151 0.315-0.315 0.715-0.529 1.152-0.616 0.436-0.087 0.888-0.042 1.299 0.128s0.763 0.459 1.01 0.829c0.247 0.369 0.379 0.804 0.379 1.249-0.001 0.597-0.238 1.168-0.66 1.59-0.421 0.422-0.993 0.659-1.589 0.659zm0-3.598c-0.267 0-0.528 0.079-0.75 0.227s-0.395 0.359-0.497 0.606c-0.102 0.246-0.129 0.518-0.077 0.779 0.052 0.262 0.181 0.503 0.369 0.692 0.189 0.188 0.43 0.317 0.691 0.369 0.262 0.052 0.534 0.025 0.78-0.077 0.247-0.102 0.458-0.275 0.606-0.497s0.227-0.483 0.227-0.75c0-0.358-0.143-0.701-0.395-0.954-0.254-0.253-0.596-0.395-0.954-0.395z" fill="#fff"/>
 <path d="m40.442 47.787c-0.445 0-0.88-0.132-1.25-0.379-0.37-0.248-0.658-0.599-0.828-1.01-0.171-0.411-0.215-0.863-0.128-1.299 0.086-0.437 0.301-0.837 0.615-1.152 0.315-0.315 0.715-0.529 1.152-0.616 0.436-0.087 0.888-0.042 1.299 0.128 0.411 0.171 0.763 0.459 1.01 0.829s0.379 0.804 0.379 1.249c-0.001 0.597-0.238 1.169-0.66 1.59-0.421 0.422-0.993 0.659-1.589 0.66zm0-3.599c-0.267 0-0.528 0.079-0.75 0.227-0.222 0.149-0.395 0.359-0.497 0.606s-0.129 0.518-0.077 0.78c0.052 0.261 0.181 0.502 0.369 0.691 0.189 0.188 0.43 0.317 0.691 0.369 0.262 0.052 0.534 0.025 0.78-0.077 0.247-0.102 0.458-0.275 0.606-0.497s0.227-0.483 0.227-0.75c0-0.357-0.143-0.701-0.395-0.953-0.254-0.254-0.596-0.396-0.954-0.396z" fill="#fff"/>
 <path d="m40.442 54.984c-0.445 0-0.88-0.132-1.25-0.379s-0.658-0.598-0.828-1.009c-0.171-0.411-0.215-0.863-0.128-1.3 0.086-0.436 0.301-0.837 0.615-1.151 0.315-0.315 0.715-0.529 1.152-0.616 0.436-0.087 0.888-0.042 1.299 0.128s0.763 0.459 1.01 0.829c0.247 0.369 0.379 0.804 0.379 1.249-0.001 0.597-0.238 1.168-0.66 1.59-0.421 0.422-0.993 0.659-1.589 0.659zm0-3.598c-0.267 0-0.528 0.079-0.75 0.227s-0.395 0.359-0.497 0.606c-0.102 0.246-0.129 0.518-0.077 0.779 0.052 0.262 0.181 0.503 0.369 0.692 0.189 0.188 0.43 0.317 0.691 0.369 0.262 0.052 0.534 0.025 0.78-0.077 0.247-0.102 0.458-0.275 0.606-0.497s0.227-0.483 0.227-0.75c0-0.358-0.143-0.701-0.395-0.954-0.254-0.253-0.596-0.395-0.954-0.395z" fill="#fff"/>
 <path d="m47.639 40.588c-0.444 0-0.879-0.132-1.249-0.379s-0.658-0.598-0.829-1.009c-0.17-0.411-0.214-0.863-0.128-1.3 0.087-0.436 0.301-0.837 0.616-1.151 0.315-0.315 0.715-0.529 1.152-0.616 0.436-0.087 0.888-0.042 1.299 0.128s0.762 0.459 1.01 0.829c0.247 0.369 0.379 0.804 0.379 1.249-0.001 0.597-0.238 1.168-0.66 1.59-0.421 0.422-0.993 0.659-1.59 0.659zm0-3.598c-0.267 0-0.527 0.079-0.749 0.227s-0.395 0.359-0.497 0.606c-0.103 0.246-0.129 0.518-0.077 0.779 0.052 0.262 0.18 0.503 0.369 0.692 0.189 0.188 0.429 0.317 0.691 0.369s0.533 0.025 0.78-0.077c0.246-0.102 0.457-0.275 0.606-0.497 0.148-0.222 0.227-0.483 0.227-0.75 0-0.358-0.143-0.701-0.396-0.954s-0.596-0.395-0.954-0.395z" fill="#fff"/>
 <path d="m47.639 47.787c-0.444 0-0.879-0.132-1.249-0.379-0.37-0.248-0.658-0.599-0.829-1.01-0.17-0.411-0.214-0.863-0.128-1.299 0.087-0.437 0.301-0.837 0.616-1.152s0.715-0.529 1.152-0.616c0.436-0.087 0.888-0.042 1.299 0.128 0.411 0.171 0.762 0.459 1.01 0.829 0.247 0.37 0.379 0.804 0.379 1.249-0.001 0.597-0.238 1.169-0.66 1.59-0.421 0.422-0.993 0.659-1.59 0.66zm0-3.599c-0.267 0-0.527 0.079-0.749 0.227-0.222 0.149-0.395 0.359-0.497 0.606-0.103 0.247-0.129 0.518-0.077 0.78 0.052 0.261 0.18 0.502 0.369 0.691 0.189 0.188 0.429 0.317 0.691 0.369s0.533 0.025 0.78-0.077c0.246-0.102 0.457-0.275 0.606-0.497 0.148-0.222 0.227-0.483 0.227-0.75 0-0.357-0.143-0.701-0.396-0.953-0.253-0.254-0.596-0.396-0.954-0.396z" fill="#fff"/>
 <path d="m49.889 28.442h-9.897v0.9h9.897v-0.9z" fill="#fff"/>
</svg>
